X: 35850
T: Sam's Delight
R: reel
M: 4/4
K: Gmajor
|:B2GB ABGB|cEE2 GAB^c|dAA2 d2e/f/g|fdcA DFAc|
B2GB ABGB|cEE2 GAB^c|dAA2 d2e/f/g|fdcA G3A:|
|:B/c/dgd fdcA|BGG2 dGBd|eaag a2ga|bgag edBA|
[1 B/c/dgd fdcA|BGG2 dGBd|eaag agfd|cAFA G3A:|
[2 B2GB ABGB|cEE2 GAB^c|dAA2 d2e/f/g|fdcA G4||

